src/assets/icons/numbers,fancy,00.svg

<svg width="48" height="48" viewBox="0 0 48 48" fill="none" xmlns="http://www.w3.org/2000/svg">
<path d="M23.9947 39.6392C31.31 39.6392 35.7276 34.071 35.7418 24.483C35.756 14.9659 31.2816 9.51136 23.9947 9.51136C16.6935 9.51136 12.2617 14.9517 12.2475 24.483C12.2191 34.0426 16.6651 39.625 23.9947 39.6392ZM23.9947 34.5398C20.6566 34.5398 18.4975 31.1875 18.5117 24.483C18.5259 17.8778 20.6708 14.554 23.9947 14.554C27.3043 14.554 29.4634 17.8778 29.4634 24.483C29.4776 31.1875 27.3185 34.5398 23.9947 34.5398Z" fill="black"/>
</svg>

<svg xmlns="http://www.w3.org/2000/svg" width="48" height="48" fill="none" viewBox="0 0 48 48">
  <path fill="#000" d="M23.995 39.64c7.315 0 11.733-5.569 11.747-15.157.014-9.517-4.46-14.972-11.747-14.972-7.302 0-11.733 5.44-11.748 14.972-.028 9.56 4.418 15.142 11.748 15.156zm0-5.1c-3.338 0-5.498-3.352-5.483-10.057.014-6.605 2.159-9.929 5.483-9.929 3.31 0 5.468 3.324 5.468 9.929.015 6.704-2.145 10.057-5.468 10.057z"/>
</svg>
